cached_logos/vector.svg

<?xml version="1.0" encoding="UTF-8"?>
<svg width="334px" height="243px" viewBox="0 0 334 243" version="1.1" xmlns="http://www.w3.org/2000/svg" xmlns:xlink="http://www.w3.org/1999/xlink">
    <!-- Generator: Sketch 54.1 (76490) - https://sketchapp.com -->
    <title>Group</title>
    <desc>Created with Sketch.</desc>
    <g id="Logo-(stacked)" stroke="none" stroke-width="1" fill="none" fill-rule="evenodd">
        <g id="Custom-Preset" transform="translate(-114.000000, -24.000000)">
            <g id="Group" transform="translate(114.000000, 24.000000)">
                <path d="M0,142.995701 L12.8490222,142.995701 L23.7265013,169.946019 L34.7399488,142.995701 L47.5209868,142.995701 L28.2134614,187.271223 L19.0355884,187.271223 L0,142.995701 Z M94.2326373,142.995701 L94.2326373,152.753575 L80.2278829,152.753575 L80.2278829,160.121765 L93.4848106,160.121765 L93.4848106,169.879639 L80.2278829,169.879639 L80.2278829,177.51335 L94.2326373,177.51335 L94.2326373,187.271223 L68.4666087,187.271223 L68.4666087,142.995701 L94.2326373,142.995701 Z M150.462082,172.468463 L150.462082,186.076382 C145.771169,187.735884 143.187768,188.266925 140.264445,188.266925 C132.378273,188.266925 126.463644,185.21344 122.72451,181.628915 C118.305534,177.314209 115.858102,171.273621 115.858102,165.498553 C115.858102,159.192444 118.645456,153.218236 122.72451,149.16905 C126.735581,145.186244 132.786178,142.26552 139.85654,142.26552 C142.032036,142.26552 145.567216,142.597421 150.462082,144.522444 L150.462082,158.263123 C146.654964,153.682896 142.168004,153.417376 140.196461,153.417376 C136.797249,153.417376 134.213848,154.413077 132.038352,156.3381 C129.250998,158.860544 128.095266,162.312308 128.095266,165.432173 C128.095266,168.485657 129.386966,171.871042 131.766415,174.061585 C133.737958,175.853847 136.865233,177.115069 140.196461,177.115069 C141.964051,177.115069 146.315043,176.915929 150.462082,172.468463 Z M202.612472,152.753575 L192.958709,152.753575 L192.958709,187.271223 L181.197435,187.271223 L181.197435,152.753575 L171.543672,152.753575 L171.543672,142.995701 L202.612472,142.995701 L202.612472,152.753575 Z M272.03086,165.166652 C272.03086,171.0081 269.719396,177.181449 264.892514,181.695295 C260.269586,186.010001 253.743098,188.266925 247.012658,188.266925 C240.282218,188.266925 233.755731,186.010001 229.132802,181.695295 C224.305921,177.181449 221.994456,171.0081 221.994456,165.166652 C221.994456,159.258824 224.305921,153.019095 229.132802,148.571629 C233.755731,144.256923 240.282218,142 247.012658,142 C253.743098,142 260.269586,144.256923 264.892514,148.571629 C269.719396,153.019095 272.03086,159.258824 272.03086,165.166652 Z M247.012658,153.151856 C243.749414,153.151856 240.282218,154.280317 237.834785,156.67 C235.387352,158.993304 234.23162,162.245928 234.23162,165.365793 C234.23162,169.282218 236.135179,172.003802 237.834785,173.596924 C240.010281,175.654707 243.069572,177.115069 247.012658,177.115069 C251.023729,177.115069 254.015035,175.721087 256.122547,173.663304 C258.230059,171.605521 259.793696,168.552037 259.793696,165.166652 C259.793696,161.714888 258.230059,158.661403 256.122547,156.67 C253.60713,154.346697 250.139933,153.151856 247.012658,153.151856 Z M295.695852,142.995701 L314.051598,142.995701 C317.45081,142.995701 321.801802,143.526742 325.13303,146.912127 C327.716431,149.50095 329.008132,153.350996 329.008132,156.869141 C329.008132,160.652806 327.648447,163.971811 325.404967,166.095974 C323.637376,167.755476 321.257928,168.751177 319.150416,169.149458 L333.359123,187.271223 L318.742511,187.271223 L307.457126,170.277919 L307.457126,187.271223 L295.695852,187.271223 L295.695852,142.995701 Z M307.457126,151.890634 L307.457126,162.843349 L309.700606,162.843349 C311.468196,162.843349 313.983614,162.378688 315.411283,161.051087 C316.295078,160.188145 316.906936,158.727783 316.906936,157.333801 C316.906936,156.0062 316.363062,154.545838 315.343298,153.616516 C314.255551,152.554435 312.284007,151.890634 309.700606,151.890634 L307.457126,151.890634 Z" id="Vector" fill="#001B3D"></path>
                <path d="M81.515625,236 L71.875,236 L71.875,213.453125 L81.296875,213.453125 C85.578125,213.453125 88.15625,215.609375 88.15625,219.078125 C88.15625,221.453125 86.40625,223.546875 84.140625,223.90625 L84.140625,224.1875 C87.171875,224.46875 89.265625,226.65625 89.265625,229.59375 C89.265625,233.546875 86.328125,236 81.515625,236 Z M75.90625,216.65625 L75.90625,222.9375 L79.796875,222.9375 C82.65625,222.9375 84.171875,221.828125 84.171875,219.796875 C84.171875,217.8125 82.75,216.65625 80.3125,216.65625 L75.90625,216.65625 Z M75.90625,232.796875 L80.59375,232.796875 C83.5625,232.796875 85.140625,231.578125 85.140625,229.28125 C85.140625,227.03125 83.515625,225.84375 80.4375,225.84375 L75.90625,225.84375 L75.90625,232.796875 Z M95.109375,242.203125 C94.875,242.203125 93.828125,242.1875 93.578125,242.140625 L93.578125,238.96875 C93.796875,239.015625 94.375,239.03125 94.640625,239.03125 C96.28125,239.03125 97.203125,238.40625 97.703125,236.828125 L97.90625,236.078125 L91.796875,218.90625 L96.046875,218.90625 L100.046875,232.25 L100.3125,232.25 L104.296875,218.90625 L108.390625,218.90625 L102.21875,236.546875 C100.765625,240.796875 98.9375,242.203125 95.109375,242.203125 Z M130.296875,236 L126.265625,236 L126.265625,216.9375 L119.328125,216.9375 L119.328125,213.453125 L137.25,213.453125 L137.25,216.9375 L130.296875,216.9375 L130.296875,236 Z M140.796875,236 L140.796875,218.90625 L144.65625,218.90625 L144.65625,236 L140.796875,236 Z M142.71875,216.078125 C141.453125,216.078125 140.40625,215.046875 140.40625,213.75 C140.40625,212.453125 141.453125,211.40625 142.71875,211.40625 C144,211.40625 145.03125,212.453125 145.03125,213.75 C145.03125,215.046875 144,216.078125 142.71875,216.078125 Z M149.453125,236 L149.453125,218.90625 L153.1875,218.90625 L153.1875,221.671875 L153.453125,221.671875 C154.1875,219.71875 155.9375,218.5625 158.203125,218.5625 C160.5625,218.5625 162.203125,219.75 162.921875,221.671875 L163.1875,221.671875 C164.03125,219.796875 166,218.5625 168.375,218.5625 C171.796875,218.5625 173.859375,220.703125 173.859375,224.25 L173.859375,236 L170,236 L170,225.234375 C170,223.03125 168.953125,221.9375 166.875,221.9375 C164.859375,221.9375 163.53125,223.40625 163.53125,225.359375 L163.53125,236 L159.765625,236 L159.765625,224.953125 C159.765625,223.078125 158.578125,221.9375 156.671875,221.9375 C154.75,221.9375 153.328125,223.515625 153.328125,225.609375 L153.328125,236 L149.453125,236 Z M187.953125,236.28125 C185.5625,236.28125 183.578125,235.171875 182.609375,233.296875 L182.34375,233.296875 L182.34375,236 L178.609375,236 L178.609375,212.296875 L182.484375,212.296875 L182.484375,221.625 L182.75,221.625 C183.640625,219.765625 185.609375,218.625 187.953125,218.625 C192.28125,218.625 194.96875,221.984375 194.96875,227.453125 C194.96875,232.890625 192.265625,236.28125 187.953125,236.28125 Z M186.734375,221.921875 C184.09375,221.921875 182.421875,224.046875 182.421875,227.453125 C182.421875,230.859375 184.078125,232.984375 186.734375,232.984375 C189.390625,232.984375 190.984375,230.890625 190.984375,227.453125 C190.984375,224.015625 189.375,221.921875 186.734375,221.921875 Z M206.03125,221.640625 C203.71875,221.640625 202.09375,223.296875 201.921875,225.796875 L209.96875,225.796875 C209.890625,223.265625 208.359375,221.640625 206.03125,221.640625 Z M210,231.296875 L213.671875,231.296875 C212.96875,234.40625 210.109375,236.34375 206.078125,236.34375 C201.046875,236.34375 198.015625,233.015625 198.015625,227.515625 C198.015625,222.015625 201.09375,218.5625 206.046875,218.5625 C210.921875,218.5625 213.84375,221.796875 213.84375,227.1875 L213.84375,228.4375 L201.90625,228.4375 L201.90625,228.640625 C202,231.484375 203.640625,233.265625 206.1875,233.265625 C208.109375,233.265625 209.4375,232.5625 210,231.296875 Z M217.734375,236 L217.734375,218.90625 L221.46875,218.90625 L221.46875,221.5625 L221.734375,221.5625 C222.203125,219.875 224.046875,218.625 226.25,218.625 C226.8125,218.625 227.5,218.6875 227.859375,218.796875 L227.859375,222.390625 C227.5625,222.28125 226.53125,222.171875 225.875,222.171875 C223.359375,222.171875 221.609375,223.734375 221.609375,226.125 L221.609375,236 L217.734375,236 Z M231.4375,236.328125 C229.96875,236.328125 228.9375,235.265625 228.9375,233.859375 C228.9375,232.4375 229.96875,231.390625 231.4375,231.390625 C232.921875,231.390625 233.9375,232.4375 233.9375,233.859375 C233.9375,235.265625 232.921875,236.328125 231.4375,236.328125 Z M239.125,236 L239.125,218.90625 L242.984375,218.90625 L242.984375,236 L239.125,236 Z M241.046875,216.078125 C239.78125,216.078125 238.734375,215.046875 238.734375,213.75 C238.734375,212.453125 239.78125,211.40625 241.046875,211.40625 C242.328125,211.40625 243.359375,212.453125 243.359375,213.75 C243.359375,215.046875 242.328125,216.078125 241.046875,216.078125 Z M255.15625,236.34375 C250.03125,236.34375 246.9375,233 246.9375,227.453125 C246.9375,221.9375 250.078125,218.5625 255.15625,218.5625 C260.25,218.5625 263.375,221.921875 263.375,227.453125 C263.375,233 260.265625,236.34375 255.15625,236.34375 Z M255.15625,233.09375 C257.859375,233.09375 259.390625,231.03125 259.390625,227.453125 C259.390625,223.890625 257.84375,221.8125 255.15625,221.8125 C252.453125,221.8125 250.90625,223.890625 250.90625,227.453125 C250.90625,231.03125 252.453125,233.09375 255.15625,233.09375 Z" id="ByTimber.io" fill="#001B3D" fill-rule="nonzero"></path>
                <g id="Logo" transform="translate(66.000000, 0.000000)" fill="#5FEFFF">
                    <polygon id="Rectangle" points="170.175817 0 200.198318 1.66903243e-12 128.698919 117.915573 113.864676 93.5145339"></polygon>
                    <polygon id="Triangle-Copy" transform="translate(71.123087, 58.647482) scale(1, -1) translate(-71.123087, -58.647482) " points="71.1230868 9.09494702e-13 142.246174 117.294965 106.769909 117.294965 71.8506246 59.9507598 36.914437 117.294965 0 117.294965"></polygon>
                </g>
            </g>
        </g>
    </g>
</svg>

<svg xmlns="http://www.w3.org/2000/svg" role="img" viewBox="-6.66 -6.66 346.58 255.33"><title>Vector logo</title><g fill="none" fill-rule="evenodd"><path fill="#001B3D" d="M0 142.9957h12.84902l10.87748 26.95032 11.01345-26.95032h12.78104l-19.30753 44.27552H19.0356L0 142.9957zm94.23264 0v9.75788H80.22788v7.36819h13.25693v9.75787H80.22788v7.63371h14.00476v9.75787H68.4666V142.9957h25.76603zm56.22944 29.47276v13.60792c-4.69091 1.6595-7.27431 2.19054-10.19763 2.19054-7.88618 0-13.8008-3.05348-17.53994-6.638-4.41898-4.31471-6.8664-10.3553-6.8664-16.13037 0-6.3061 2.78735-12.28031 6.8664-16.3295 4.01107-3.9828 10.06167-6.90353 17.13203-6.90353 2.1755 0 5.71068.3319 10.60554 2.25692v13.74068c-3.80712-4.58022-8.29408-4.84574-10.26562-4.84574-3.39921 0-5.98261.9957-8.1581 2.92072-2.78736 2.52244-3.9431 5.9742-3.9431 9.09407 0 3.05349 1.2917 6.43887 3.67115 8.62941 1.97155 1.79227 5.09882 3.05349 8.43005 3.05349 1.7676 0 6.11858-.19914 10.26562-4.6466zm52.1504-19.71488h-9.65377v34.51764h-11.76127v-34.51764h-9.65377v-9.75788h31.0688v9.75788zm69.41838 12.41307c0 5.84145-2.31146 12.0148-7.13835 16.52864-4.62292 4.31471-11.14941 6.57163-17.87985 6.57163-6.73044 0-13.25693-2.25692-17.87986-6.57163-4.82688-4.51384-7.13834-10.68719-7.13834-16.52864 0-5.90783 2.31146-12.14756 7.13834-16.59502C233.75573 144.25693 240.28222 142 247.01266 142c6.73044 0 13.25693 2.25692 17.87985 6.57163 4.82689 4.44746 7.13835 10.6872 7.13835 16.59502zm-25.0182-12.0148c-3.26325 0-6.73044 1.12847-9.17788 3.51815-2.44743 2.3233-3.60316 5.57593-3.60316 8.6958 0 3.91642 1.90356 6.638 3.60317 8.23112 2.1755 2.05779 5.23478 3.51815 9.17787 3.51815 4.01107 0 7.00238-1.39398 9.10989-3.45177 2.1075-2.05778 3.67115-5.11126 3.67115-8.49665 0-3.45176-1.56364-6.50525-3.67115-8.49665-2.51542-2.3233-5.98262-3.51814-9.1099-3.51814zm48.6832-10.15615h18.35574c3.39921 0 7.7502.53104 11.08143 3.91643 2.5834 2.58882 3.8751 6.43887 3.8751 9.95701 0 3.78367-1.35968 7.10267-3.60316 9.22683-1.7676 1.6595-4.14704 2.6552-6.25455 3.05349l14.2087 18.12176h-14.6166l-11.2854-16.9933v16.9933h-11.76127V142.9957zm11.76127 8.89493v10.95272h2.24348c1.76759 0 4.283-.46466 5.71067-1.79226.8838-.86294 1.49566-2.3233 1.49566-3.71729 0-1.3276-.54388-2.78796-1.56364-3.71728-1.08775-1.06208-3.0593-1.72589-5.6427-1.72589h-2.24347z"/><path fill="#001B3D" fill-rule="nonzero" d="M81.51563 236H71.875v-22.54688h9.42188c4.28124 0 6.85937 2.15625 6.85937 5.625 0 2.375-1.75 4.46875-4.01563 4.82813v.28125c3.03126.28125 5.125 2.46875 5.125 5.40625 0 3.95313-2.9375 6.40625-7.75 6.40625zm-5.60938-19.34375v6.28125h3.89063c2.85937 0 4.375-1.10938 4.375-3.14063 0-1.98437-1.42188-3.14062-3.85938-3.14062h-4.40625zm0 16.14063h4.6875c2.96875 0 4.54688-1.21875 4.54688-3.51563 0-2.25-1.625-3.4375-4.70313-3.4375h-4.53125v6.95313zm19.20313 9.40625c-.23438 0-1.28126-.01563-1.53126-.0625v-3.17188c.21876.04688.79688.0625 1.0625.0625 1.64063 0 2.5625-.625 3.0625-2.20313l.20313-.75-6.10938-17.17187h4.25l4 13.34375h.26563l3.98438-13.34375h4.09374l-6.17187 17.64063c-1.45313 4.25-3.28125 5.65625-7.10938 5.65625zM130.29688 236h-4.03125v-19.0625h-6.9375v-3.48438H137.25v3.48438h-6.95313V236zm10.5 0v-17.09375h3.85937V236h-3.85938zm1.92187-19.92188c-1.26563 0-2.3125-1.03125-2.3125-2.32812 0-1.29688 1.04688-2.34375 2.3125-2.34375 1.28125 0 2.3125 1.04688 2.3125 2.34375 0 1.29688-1.03125 2.32813-2.3125 2.32813zM149.45313 236v-17.09375h3.73437v2.76563h.26563c.73437-1.95313 2.48437-3.10938 4.75-3.10938 2.35937 0 4 1.1875 4.71875 3.10938h.26562c.84375-1.875 2.8125-3.10938 5.1875-3.10938 3.42188 0 5.48438 2.14063 5.48438 5.6875V236H170v-10.76563c0-2.20312-1.04688-3.29687-3.125-3.29687-2.01563 0-3.34375 1.46875-3.34375 3.42188V236h-3.76563v-11.04688c0-1.875-1.1875-3.01562-3.09375-3.01562-1.92187 0-3.34375 1.57813-3.34375 3.67188V236h-3.875zm38.5.28125c-2.39063 0-4.375-1.10938-5.34375-2.98438h-.26563V236h-3.73438v-23.70313h3.875v9.32813h.26563c.89063-1.85938 2.85938-3 5.20313-3 4.32812 0 7.01562 3.35938 7.01562 8.82813 0 5.4375-2.70313 8.82812-7.01563 8.82812zm-1.21875-14.35938c-2.64063 0-4.3125 2.125-4.3125 5.53125s1.65625 5.53125 4.3125 5.53125 4.25-2.09375 4.25-5.53125-1.60938-5.53125-4.25-5.53125zm19.29687-.28125c-2.3125 0-3.9375 1.65625-4.10938 4.15625h8.04688c-.07813-2.53125-1.60938-4.15625-3.9375-4.15625zM210 231.29688h3.67188c-.70313 3.10938-3.5625 5.04688-7.59375 5.04688-5.03125 0-8.0625-3.32813-8.0625-8.82813s3.07812-8.95312 8.03125-8.95312c4.875 0 7.79687 3.23438 7.79687 8.625v1.25h-11.9375v.20313c.09375 2.84375 1.73438 4.625 4.28125 4.625 1.92188 0 3.25-.70313 3.8125-1.96875zM217.73438 236v-17.09375h3.73437v2.65625h.26563c.46875-1.6875 2.3125-2.9375 4.51562-2.9375.5625 0 1.25.0625 1.60938.17188v3.59375c-.29688-.10938-1.32813-.21875-1.98438-.21875-2.51563 0-4.26563 1.5625-4.26563 3.95312V236h-3.875zm13.70312.32813c-1.46875 0-2.5-1.0625-2.5-2.46875 0-1.42188 1.03125-2.46875 2.5-2.46875 1.48438 0 2.5 1.04687 2.5 2.46875 0 1.40625-1.01563 2.46875-2.5 2.46875zM239.125 236v-17.09375h3.85938V236H239.125zm1.92188-19.92188c-1.26563 0-2.3125-1.03125-2.3125-2.32812 0-1.29688 1.04687-2.34375 2.3125-2.34375 1.28125 0 2.3125 1.04688 2.3125 2.34375 0 1.29688-1.03125 2.32813-2.3125 2.32813zm14.10937 20.26563c-5.125 0-8.21875-3.34375-8.21875-8.89063 0-5.51562 3.14063-8.89062 8.21875-8.89062 5.09375 0 8.21875 3.35938 8.21875 8.89063 0 5.54687-3.10938 8.89062-8.21875 8.89062zm0-3.25c2.70313 0 4.23438-2.0625 4.23438-5.64063 0-3.5625-1.54688-5.64062-4.23438-5.64062-2.70313 0-4.25 2.07813-4.25 5.64063 0 3.57812 1.54688 5.64062 4.25 5.64062z"/><g fill="#5FEFFF"><path d="M236.176 0h30.022l-71.499 117.916-14.834-24.401z"/><path d="M137.123 117.295L208.246 0H172.77l-34.919 57.344L102.914 0H66z"/></g></g></svg>
